X:916
T:Nut Brown Maid
C:Joe Buchanan's Scottish Tome - Page 533.3
I:533 3
Z:Carl Allison
R:Waltz
L:1/4
M:3/4
K:G
D | "G"G2 F | "C"(E2 D) | "G"G3 | "G"D2 (E/F/) | "G"G2 (A/B/) | "Am"(c2 B) | "A"(B3 | "D"A2) c |
"G"(B d2) | "G"(B2 d) | "G"D3 | "C"(G2 A) | "G"B2 B | "D"(c2 A) | "G"(G3- | G) (B c) |
"G"(d2 e) | "G"(d2 B) | "G"B3 | "G"(B2 c) | "G"(d2 e) | "E"(d2 B) | "A"A3- | "D"A2 c |
"G"(B d2) | "G"(B2 d) | "G"D3 | "C"(G2 A) | "G"(B2 B) | "D"(c2 A) | "G"G3- | "G"G2 :|
W:Errata: Changed the first "A"chord in first line to "Am" to avoid clashing with the C note.

